app/images/white-heart.svg

<svg fill="none" height="16" viewBox="0 0 20 16" width="20" xmlns="http://www.w3.org/2000/svg"><path d="m10.225 15c3.8815-1.901 6.4597-4.033 7.7733-6.22299 1.1122-1.85444 1.2507-3.6626.5523-5.1501-.6341-1.35063-1.9224-2.31503-3.4064-2.56352-1.5839-.265231-3.1959.3016-4.4738 1.70535l-.4454.48926-.44547-.48926c-1.27795-1.40375-2.8899-1.970581-4.47385-1.70535-1.48396.24849-2.77227 1.21289-3.40638 2.56352-.69837 1.4875-.55986 3.29566.55241 5.1501 1.31353 2.18999 3.89171 4.32199 7.77329 6.22299z" stroke="#fff" stroke-linecap="round" stroke-linejoin="round" stroke-width="1.45571"/><path d="m9.83066 9.65892-1.05614.54948c-.10794.0561-.24145.0151-.29821-.0917-.02262-.0425-.03043-.0912-.02221-.13856l.20179-1.16429c.04723-.27245-.04407-.55044-.24414-.74343l-.85487-.82458c-.0873-.08422-.08907-.2225-.00392-.30887.03389-.03438.07828-.05675.12633-.06366l1.18103-.16982c.27666-.03979.5158-.21168.63948-.45968l.5282-1.05899c.0539-.10817.1863-.15261.2957-.09924.0436.02127.0788.05615.1003.09924l.5282 1.05899c.1237.248.3628.41989.6394.45968l1.1811.16982c.1207.01735.2043.12819.1868.24757-.007.04752-.0296.09144-.0644.12496l-.8549.82458c-.2.19299-.2913.47098-.2441.74343l.2018 1.16429c.0206.11886-.0601.23186-.1803.25216-.0479.0082-.0971.0004-.1401-.0219l-1.0562-.54948c-.2475-.12874-.5432-.12874-.79064 0z" fill="#fff"/></svg>

<svg width="20" height="16" viewBox="0 0 20 16" fill="none" xmlns="http://www.w3.org/2000/svg">
<path d="M10.225 15C14.1065 13.099 16.6847 10.967 17.9983 8.77701C19.1105 6.92257 19.249 5.11441 18.5506 3.62691C17.9165 2.27628 16.6282 1.31188 15.1442 1.06339C13.5603 0.798159 11.9483 1.36499 10.6704 2.76874L10.225 3.258L9.77953 2.76874C8.50158 1.36499 6.88963 0.798159 5.30568 1.06339C3.82172 1.31188 2.53341 2.27628 1.8993 3.62691C1.20093 5.11441 1.33944 6.92257 2.45171 8.77701C3.76524 10.967 6.34342 13.099 10.225 15Z" stroke="white" stroke-width="1.45571" stroke-linecap="round" stroke-linejoin="round"/>
<path d="M9.83066 9.65892L8.77452 10.2084C8.66658 10.2645 8.53307 10.2235 8.47631 10.1167C8.45369 10.0742 8.44588 10.0255 8.4541 9.97814L8.65589 8.81385C8.70312 8.5414 8.61182 8.26341 8.41175 8.07042L7.55688 7.24584C7.46958 7.16162 7.46781 7.02334 7.55296 6.93697C7.58685 6.90259 7.63124 6.88022 7.67929 6.87331L8.86032 6.70349C9.13698 6.6637 9.37612 6.49181 9.4998 6.24381L10.028 5.18482C10.0819 5.07665 10.2143 5.03221 10.3237 5.08558C10.3673 5.10685 10.4025 5.14173 10.424 5.18482L10.9522 6.24381C11.0759 6.49181 11.315 6.6637 11.5916 6.70349L12.7727 6.87331C12.8934 6.89066 12.977 7.0015 12.9595 7.12088C12.9525 7.1684 12.9299 7.21232 12.8951 7.24584L12.0402 8.07042C11.8402 8.26341 11.7489 8.5414 11.7961 8.81385L11.9979 9.97814C12.0185 10.097 11.9378 10.21 11.8176 10.2303C11.7697 10.2385 11.7205 10.2307 11.6775 10.2084L10.6213 9.65892C10.3738 9.53018 10.0781 9.53018 9.83066 9.65892Z" fill="white"/>
</svg>
